X: 201393
T: Tommy Coen's
S: B.Breathnach:"Ceol Rince na hEireann" II/3 (gan ainm)
Z: B.Black
L: 1/8
M: 6/8
R: jig
K: G
D|DDD E2D|BAd cBA|dD/E/D GBA|AGE GED|
D2D E2D|BAd cBA|dDD GBA|AGE G2D|
D2D E2D|B2d c2A|B2D G2A|BEA E2D|
D2D E2D|BAd cBA|dDD GBA|AGE G3 ||
egg e/f/ed|eaa ged|AAA GBA|AGE GED|
E3 e/f/ed|eaa ged|AAA GBA|AGE G3 :|
